src/img/services-interior.svg

<svg width="38" height="38" viewBox="0 0 38 38" fill="none" xmlns="http://www.w3.org/2000/svg">
<path d="M34.375 30.4155H32.1408V24.6217C32.1408 24.2729 31.8609 23.9902 31.5158 23.9902H20.4094C20.0643 23.9902 19.7844 24.2729 19.7844 24.6217V30.4155H17.3273C17.9151 29.444 18.2297 28.3245 18.2297 27.162C18.2297 24.8262 16.9399 22.6953 14.9109 21.6225V19.3662C14.9109 19.0175 14.6311 18.7347 14.2859 18.7347H12.6694V17.2926C13.2827 17.2004 13.8598 16.9707 14.2924 16.6037C14.5294 16.4026 14.9032 15.9986 15.0279 15.3775C15.6275 15.581 16.1651 15.454 16.4578 15.3462C17.8711 14.825 18.9603 12.9209 18.6991 11.4281C18.6452 11.1198 18.4854 10.5899 18.0135 10.1695C18.4854 9.74914 18.6452 9.21924 18.6991 8.911C18.9603 7.41817 17.871 5.51403 16.4578 4.99285C16.1651 4.88498 15.6275 4.75792 15.0279 4.96152C14.9032 4.34043 14.5294 3.93645 14.2924 3.73532C13.1369 2.75489 10.952 2.75489 9.79644 3.73532C9.55944 3.93652 9.18563 4.34043 9.06087 4.96152C8.46144 4.75811 7.92381 4.88505 7.63112 4.99303C6.21788 5.51416 5.12856 7.41829 5.38981 8.91112C5.44369 9.21936 5.6035 9.7492 6.07544 10.1697C5.60356 10.5901 5.44369 11.12 5.38981 11.4282C5.12862 12.921 6.21788 14.8251 7.63112 15.3463C7.92387 15.4542 8.46137 15.5812 9.061 15.3776C9.18575 15.9987 9.55956 16.4026 9.79656 16.6038C10.2293 16.971 10.8063 17.2007 11.4195 17.2929V18.7349H9.803C9.45781 18.7349 9.178 19.0176 9.178 19.3664V21.6226C7.14906 22.6954 5.85919 24.8263 5.85919 27.1621C5.85919 28.3246 6.17388 29.444 6.76163 30.4156H3.625C3.27981 30.4156 3 30.6984 3 31.0471V32.6111C3 33.9283 4.06063 35 5.36438 35H32.6356C33.9393 35 35 33.9283 35 32.6111V31.0471C35 30.6982 34.7201 30.4155 34.375 30.4155ZM10.5933 13.9618C10.6504 13.8622 10.6776 13.7533 10.6776 13.6459C10.6776 13.428 10.5658 13.2159 10.3657 13.0989C10.0671 12.9241 9.68462 13.027 9.51162 13.3289C8.86525 14.4567 8.25887 14.2331 8.05969 14.1597C7.21863 13.8496 6.46556 12.5351 6.62075 11.648C6.71906 11.0861 7.20344 10.8012 8.06044 10.8012C8.40563 10.8012 8.68544 10.5184 8.68544 10.1697C8.68544 9.82094 8.40563 9.53815 8.06044 9.53815C7.20344 9.53815 6.71906 9.25321 6.62075 8.69129C6.46556 7.80421 7.21869 6.48965 8.05969 6.17952C8.25894 6.10607 8.86525 5.88252 9.51162 7.0104C9.68456 7.31213 10.0669 7.4152 10.3657 7.2404C10.5658 7.12331 10.6776 6.91125 10.6776 6.69332C10.6776 6.58596 10.6504 6.47709 10.5933 6.37743C9.94987 5.2548 10.4396 4.8392 10.6004 4.70267C11.2887 4.11864 12.8003 4.11864 13.4886 4.70267C13.6495 4.8392 14.1391 5.25473 13.4957 6.37743C13.4386 6.47709 13.4114 6.58596 13.4114 6.69332C13.4114 6.91131 13.5232 7.12338 13.7233 7.2404C14.022 7.4152 14.4044 7.31226 14.5774 7.0104C15.2237 5.88252 15.8299 6.10607 16.0293 6.17952C16.8703 6.48965 17.6234 7.80427 17.4682 8.69129C17.3699 9.25321 16.8855 9.53815 16.0285 9.53815C15.6833 9.53815 15.4035 9.82094 15.4035 10.1697C15.4035 10.5184 15.6833 10.8012 16.0285 10.8012C16.8855 10.8012 17.3699 11.0861 17.4682 11.648C17.6234 12.5351 16.8703 13.8496 16.0293 14.1597C15.83 14.2332 15.2238 14.4567 14.5774 13.3289C14.4044 13.0271 14.022 12.924 13.7233 13.0989C13.5232 13.2159 13.4114 13.4279 13.4114 13.6459C13.4114 13.7533 13.4386 13.8622 13.4957 13.9618C14.1391 15.0845 13.6494 15.5 13.4886 15.6366C12.8003 16.2206 11.2887 16.2206 10.6004 15.6366C10.4395 15.5 9.94987 15.0845 10.5933 13.9618ZM21.0344 25.2532H30.8908V30.4155H21.0344V25.2532ZM7.10919 27.162C7.10919 25.1863 8.26556 23.3943 10.0552 22.5968C10.2818 22.4958 10.428 22.2692 10.428 22.019V19.9978H13.661V22.019C13.661 22.2692 13.8072 22.4959 14.0338 22.5968C15.8234 23.3943 16.9798 25.1862 16.9798 27.162C16.9798 28.3652 16.5574 29.5105 15.7849 30.4155H8.30406C7.53162 29.5105 7.10919 28.3652 7.10919 27.162ZM33.75 32.6109C33.75 33.2318 33.2501 33.7369 32.6356 33.7369H5.36438C4.74994 33.7369 4.25 33.2318 4.25 32.6109V31.6785H33.75V32.6109Z" fill="white"/>
<path d="M14.5936 10.1696C14.5936 8.75262 13.4501 7.59985 12.0444 7.59985C10.6389 7.59985 9.49536 8.75268 9.49536 10.1696C9.49536 11.5865 10.6389 12.7394 12.0444 12.7394C13.4501 12.7394 14.5936 11.5866 14.5936 10.1696ZM10.7454 10.1696C10.7454 9.44905 11.3281 8.86288 12.0444 8.86288C12.7608 8.86288 13.3436 9.44905 13.3436 10.1696C13.3436 10.8902 12.7608 11.4763 12.0444 11.4763C11.3281 11.4764 10.7454 10.8902 10.7454 10.1696Z" fill="white"/>
<path d="M28.3776 27.2029H23.5479C23.2027 27.2029 22.9229 27.4857 22.9229 27.8344C22.9229 28.1832 23.2027 28.4659 23.5479 28.4659H28.3776C28.7227 28.4659 29.0026 28.1832 29.0026 27.8344C29.0026 27.4856 28.7228 27.2029 28.3776 27.2029Z" fill="white"/>
</svg>

<svg width="38" height="38" fill="none" xmlns="http://www.w3.org/2000/svg"><path d="M34.375 30.416h-2.234v-5.794a.628.628 0 0 0-.625-.632H20.409a.628.628 0 0 0-.625.632v5.794h-2.457a6.27 6.27 0 0 0 .903-3.254 6.265 6.265 0 0 0-3.32-5.54v-2.256a.628.628 0 0 0-.624-.631h-1.617v-1.442c.614-.093 1.19-.322 1.623-.69.237-.2.611-.604.736-1.226.6.204 1.137.077 1.43-.03 1.413-.522 2.502-2.426 2.241-3.919a2.193 2.193 0 0 0-.686-1.259c.472-.42.632-.95.686-1.258.261-1.493-.828-3.397-2.241-3.918a2.153 2.153 0 0 0-1.43-.031 2.189 2.189 0 0 0-.736-1.227c-1.155-.98-3.34-.98-4.496 0a2.19 2.19 0 0 0-.735 1.227 2.153 2.153 0 0 0-1.43.031C6.218 5.514 5.13 7.418 5.39 8.911a2.2 2.2 0 0 0 .685 1.259c-.471.42-.631.95-.685 1.258-.261 1.493.828 3.397 2.241 3.918.293.108.83.235 1.43.032a2.19 2.19 0 0 0 .736 1.226c.432.367 1.01.597 1.622.689v1.442H9.803a.628.628 0 0 0-.625.631v2.257a6.265 6.265 0 0 0-3.319 5.54 6.27 6.27 0 0 0 .903 3.253H3.625a.628.628 0 0 0-.625.631v1.564C3 33.928 4.06 35 5.364 35h27.272C33.939 35 35 33.928 35 32.611v-1.564a.628.628 0 0 0-.625-.631ZM10.593 13.962a.634.634 0 0 0-.227-.863.621.621 0 0 0-.854.23c-.647 1.128-1.253.904-1.452.83-.841-.31-1.594-1.624-1.44-2.511.1-.562.583-.847 1.44-.847a.628.628 0 0 0 .625-.631.628.628 0 0 0-.625-.632c-.857 0-1.34-.285-1.44-.847-.154-.887.599-2.201 1.44-2.511.199-.074.805-.297 1.452.83a.622.622 0 0 0 .854.23.633.633 0 0 0 .227-.863c-.643-1.122-.153-1.538.007-1.674.689-.584 2.2-.584 2.889 0 .16.136.65.552.007 1.674a.634.634 0 0 0 .227.863.621.621 0 0 0 .854-.23c.647-1.127 1.253-.904 1.452-.83.841.31 1.594 1.624 1.44 2.511-.1.562-.584.847-1.44.847a.628.628 0 0 0-.626.632c0 .348.28.631.626.631.857 0 1.34.285 1.44.847.154.887-.599 2.202-1.44 2.512-.199.073-.805.297-1.452-.831a.621.621 0 0 0-.854-.23.632.632 0 0 0-.227.863c.643 1.123.153 1.538-.007 1.675-.689.584-2.2.584-2.889 0-.16-.137-.65-.553-.007-1.675Zm10.441 11.291h9.857v5.163h-9.857v-5.163ZM7.11 27.162a4.994 4.994 0 0 1 2.946-4.565.632.632 0 0 0 .373-.578v-2.021h3.233v2.021c0 .25.146.477.373.578a4.994 4.994 0 0 1 2.946 4.565 4.992 4.992 0 0 1-1.195 3.254h-7.48a4.992 4.992 0 0 1-1.196-3.254Zm26.641 5.449c0 .62-.5 1.126-1.114 1.126H5.364A1.122 1.122 0 0 1 4.25 32.61v-.932h29.5v.932Z" fill="#fff"/><path d="M14.594 10.17c0-1.417-1.144-2.57-2.55-2.57-1.405 0-2.549 1.153-2.549 2.57 0 1.416 1.144 2.57 2.55 2.57 1.405 0 2.549-1.153 2.549-2.57Zm-3.849 0c0-.721.583-1.307 1.3-1.307.716 0 1.299.586 1.299 1.307 0 .72-.583 1.306-1.3 1.306a1.304 1.304 0 0 1-1.299-1.306Zm17.633 17.033h-4.83a.628.628 0 0 0-.625.631c0 .35.28.632.625.632h4.83a.628.628 0 0 0 .625-.632.628.628 0 0 0-.625-.631Z" fill="#fff"/></svg>
